RiderIcons2/solutionAnalysisOn.svg

<svg xmlns="http://www.w3.org/2000/svg" width="16" height="16">
  <path d="M14,12.7a3.352,3.352,0,0,0-.6-1.9L10,6V2h.5a.5.5,0,0,0,0-1h-5a.5.5,0,0,0,0,1H6V6L2.6,10.8c-.055.079-.1.163-.145.246a2.952,2.952,0,0,1,.966.327l0-.006L7,6.318V2H9V6.318L10.9,9H6.1L4.424,11.366a2.388,2.388,0,0,0-.272.55A2.98,2.98,0,0,1,5,13.961,1.151,1.151,0,0,0,5.127,14c.022,0,.045,0,.067,0H5a2.962,2.962,0,0,1-.184,1H11.81A2.193,2.193,0,0,0,14,12.807C14,12.771,14,12.735,14,12.7Z" fill="#6e6e6e"/>
  <circle cx="2" cy="14" r="2" fill="#59a869"/>
</svg>

<svg width="16" height="16" viewBox="0 0 16 16" xmlns="http://www.w3.org/2000/svg">
  <path fill="#6e6e6e" d="M13.4 10.8 10 6V2h.5c.28 0 .5-.22.5-.5s-.22-.5-.5-.5h-5c-.28 0-.5.22-.5.5s.22.5.5.5H6v4l-3.4 4.8c-.06.08-.1.16-.15.25.34.05.67.16.97.33L7 6.32V2h2v4.32L10.9 9H6.1l-1.68 2.37c-.11.17-.21.36-.27.55.01.01.02.03.03.05.5.54.82 1.25.82 2.04 0 .35-.07.68-.18 1h6.99c1.21 0 2.19-.98 2.19-2.19v-.11c0-.68-.21-1.34-.6-1.9Z"/>
  <circle cx="2" cy="14" r="2" fill="#59a869"/>
</svg>
